X: 1
P: An Ataireachd Ard
R: Waltz
M: 3/4
K: G
L: 1/4
D|"G"B, D G|"G7"B2 A|"C"G2 E|"C"E G E|"G"D3-|"G"D2 D|"G"G A B|"C"c2 d|
"Am"c2 B|"Em"G E G|"D"A3-|A2 D|"G"B, D G|"G7"B2 A|"C"G2 E|"C"E G E|
"G"D3-|"G"D2 D|"G"D G B|"Bm"d2 E|"C"c2 E|"D"D-E D|"G"D3|]

